packages/foundations/assets/icons/functional/images/environment/sun_12_filled.svg

<svg width="12" height="12" viewBox="0 0 12 12" fill="none" xmlns="http://www.w3.org/2000/svg">
<g clip-path="url(#clip0_2204_3024)">
<path fill-rule="evenodd" clip-rule="evenodd" d="M5.99995 9.00001C6.33132 9.00001 6.59995 9.26864 6.59995 9.60001V10.2C6.59995 10.5314 6.33132 10.8 5.99995 10.8C5.66858 10.8 5.39995 10.5314 5.39995 10.2V9.60001C5.39995 9.26864 5.66858 9.00001 5.99995 9.00001ZM8.9698 8.12133L9.39406 8.5456C9.62838 8.77991 9.62838 9.15981 9.39406 9.39412C9.15975 9.62844 8.77985 9.62844 8.54554 9.39412L8.12127 8.96986C7.88696 8.73555 7.88696 8.35565 8.12127 8.12133C8.35559 7.88702 8.73549 7.88702 8.9698 8.12133ZM3.87863 8.12133C4.11295 8.35565 4.11295 8.73555 3.87863 8.96986L3.45437 9.39412C3.37626 9.47223 3.28198 9.5243 3.18231 9.55033L3.08124 9.56769H2.97897C2.84288 9.55612 2.70998 9.49827 2.60584 9.39412C2.37152 9.15981 2.37152 8.77991 2.60584 8.5456L3.0301 8.12133C3.26442 7.88702 3.64432 7.88702 3.87863 8.12133ZM5.99995 3.60001C7.32543 3.60001 8.39995 4.67453 8.39995 6.00001C8.39995 7.3255 7.32543 8.40001 5.99995 8.40001C4.67447 8.40001 3.59995 7.3255 3.59995 6.00001C3.59995 4.67453 4.67447 3.60001 5.99995 3.60001ZM10.2 5.40001C10.5313 5.40001 10.8 5.66864 10.8 6.00001C10.8 6.33138 10.5313 6.60001 10.2 6.60001H9.59995C9.26858 6.60001 8.99995 6.33138 8.99995 6.00001C8.99995 5.66864 9.26858 5.40001 9.59995 5.40001H10.2ZM2.39995 5.40001C2.73132 5.40001 2.99995 5.66864 2.99995 6.00001C2.99995 6.33138 2.73132 6.60001 2.39995 6.60001H1.79995C1.46858 6.60001 1.19995 6.33138 1.19995 6.00001C1.19995 5.66864 1.46858 5.40001 1.79995 5.40001H2.39995ZM3.45437 2.6059L3.87863 3.03016C4.11295 3.26448 4.11295 3.64438 3.87863 3.87869C3.64432 4.11301 3.26442 4.11301 3.0301 3.87869L2.60584 3.45443C2.37152 3.22011 2.37152 2.84021 2.60584 2.6059C2.84015 2.37159 3.22005 2.37159 3.45437 2.6059ZM9.39406 2.6059C9.62838 2.84021 9.62838 3.22011 9.39406 3.45443L8.9698 3.87869C8.8917 3.9568 8.79741 4.00887 8.69774 4.0349L8.59667 4.05226H8.4944C8.35831 4.04069 8.22541 3.98283 8.12127 3.87869C7.88696 3.64438 7.88696 3.26448 8.12127 3.03016L8.54554 2.6059C8.77985 2.37159 9.15975 2.37159 9.39406 2.6059ZM5.99995 1.20001C6.33132 1.20001 6.59995 1.46864 6.59995 1.80001V2.40001C6.59995 2.73138 6.33132 3.00001 5.99995 3.00001C5.66858 3.00001 5.39995 2.73138 5.39995 2.40001V1.80001C5.39995 1.46864 5.66858 1.20001 5.99995 1.20001Z" fill="#1A1C1F"/>
</g>
<defs>
<clipPath id="clip0_2204_3024">
<rect width="12" height="12" fill="white"/>
</clipPath>
</defs>
</svg>

<svg xmlns="http://www.w3.org/2000/svg" width="12" height="12" fill="none"><g clip-path="url(#a)"><path fill="#1A1C1F" fill-rule="evenodd" d="M6 9a.6.6 0 0 1 .6.6v.6a.6.6 0 1 1-1.2 0v-.6A.6.6 0 0 1 6 9m2.97-.879.424.425a.6.6 0 1 1-.848.848L8.12 8.97a.6.6 0 0 1 .849-.849m-5.091 0a.6.6 0 0 1 0 .849l-.425.424a.6.6 0 0 1-.272.156l-.1.018h-.103a.6.6 0 0 1-.373-1.022l.424-.425a.6.6 0 0 1 .849 0M6 3.6a2.4 2.4 0 1 1 0 4.8 2.4 2.4 0 0 1 0-4.8m4.2 1.8a.6.6 0 0 1 0 1.2h-.6a.6.6 0 0 1 0-1.2zm-7.8 0a.6.6 0 0 1 0 1.2h-.6a.6.6 0 0 1 0-1.2zm1.054-2.794.425.424a.6.6 0 1 1-.849.849l-.424-.425a.6.6 0 1 1 .848-.848m5.94 0a.6.6 0 0 1 0 .848l-.424.425a.6.6 0 0 1-.272.156l-.101.017h-.103a.6.6 0 0 1-.373-1.022l.425-.424a.6.6 0 0 1 .848 0M6 1.2a.6.6 0 0 1 .6.6v.6a.6.6 0 0 1-1.2 0v-.6a.6.6 0 0 1 .6-.6" clip-rule="evenodd"/></g><defs><clipPath id="a"><path fill="#fff" d="M0 0h12v12H0z"/></clipPath></defs></svg>
